docs/assets/images/favicon.svg

<?xml version="1.0" encoding="UTF-8" standalone="no"?>
<svg
   xmlns:dc="http://purl.org/dc/elements/1.1/"
   xmlns:cc="http://creativecommons.org/ns#"
   xmlns:rdf="http://www.w3.org/1999/02/22-rdf-syntax-ns#"
   xmlns:svg="http://www.w3.org/2000/svg"
   xmlns="http://www.w3.org/2000/svg"
   xmlns:xlink="http://www.w3.org/1999/xlink"
   xmlns:sodipodi="http://sodipodi.sourceforge.net/DTD/sodipodi-0.dtd"
   xmlns:inkscape="http://www.inkscape.org/namespaces/inkscape"
   viewBox="0 0 24 24"
   version="1.1"
   id="svg4"
   sodipodi:docname="favicon.svg"
   inkscape:version="0.92.5 (2060ec1f9f, 2020-04-08)">
  <metadata
     id="metadata10">
    <rdf:RDF>
      <cc:Work
         rdf:about="">
        <dc:format>image/svg+xml</dc:format>
        <dc:type
           rdf:resource="http://purl.org/dc/dcmitype/StillImage" />
      </cc:Work>
    </rdf:RDF>
  </metadata>
  <defs
     id="defs8">
    <clipPath
       clipPathUnits="userSpaceOnUse"
       id="clipPath17">
      <use
         x="0"
         y="0"
         xlink:href="#g13"
         id="use19"
         width="100%"
         height="100%" />
    </clipPath>
    <clipPath
       clipPathUnits="userSpaceOnUse"
       id="clipPath68">
      <path
         id="path70"
         d="M 18.5,14 C 19.9,14 21,15.1 21,16.5 21,17.9 19.9,19 18.5,19 17.1,19 16,17.9 16,16.5 16,15.1 17.1,14 18.5,14 M 7,15 c 0,0 1,1 1,2 v 3.5 C 8,21.3 8.7,22 9.5,22 10.3,22 11,21.3 11,20.5 V 17 c 0,-1 1,-2 1,-2 H 7 m 1,-1 h 3 c 0,0 5,0 5,-5 C 16,4 12,2 9.5,2 7,2 3,4 3,9 c 0,5 5,5 5,5 z"
         inkscape:connector-curvature="0" />
    </clipPath>
  </defs>
  <sodipodi:namedview
     pagecolor="#ffffff"
     bordercolor="#666666"
     borderopacity="1"
     objecttolerance="10"
     gridtolerance="10"
     guidetolerance="10"
     inkscape:pageopacity="0"
     inkscape:pageshadow="2"
     inkscape:window-width="1884"
     inkscape:window-height="1044"
     id="namedview6"
     showgrid="false"
     inkscape:zoom="22.627417"
     inkscape:cx="14.939726"
     inkscape:cy="12.34509"
     inkscape:window-x="36"
     inkscape:window-y="36"
     inkscape:window-maximized="1"
     inkscape:current-layer="g13" />
  <g
     id="g13"
     inkscape:label="Clip">
    <path
       d="M 7 15 C 7 15 8 16 8 17 L 8 20.5 C 8 21.3 8.7 22 9.5 22 C 10.3 22 11 21.3 11 20.5 L 11 17 C 11 16 12 15 12 15 L 7 15 z "
       id="path2" />
    <path
       d="m 9.5098869,2.000448 c -2.5,0 -6.5000001,2 -6.5000001,6.9999998 0,5.0000012 5.0000001,5.0000012 5.0000001,5.0000012 h 2.9999991 c 0,0 5.000001,0 5.000001,-5.0000012 0,-4.9999998 -4,-6.9999998 -6.5000001,-6.9999998 z"
       id="path2-7"
       style="fill:#aa0000"
       inkscape:connector-curvature="0" />
    <path
       d="M 18.5 14 C 17.1 14 16 15.1 16 16.5 C 16 17.9 17.1 19 18.5 19 C 19.9 19 21 17.9 21 16.5 C 21 15.1 19.9 14 18.5 14 z "
       id="path2-5"
       style="fill:#e6e6e6" />
  </g>
</svg>

<svg xmlns="http://www.w3.org/2000/svg" viewBox="0 0 24 24"><path d="M18.5 14c1.4 0 2.5 1.1 2.5 2.5S19.9 19 18.5 19 16 17.9 16 16.5s1.1-2.5 2.5-2.5M7 15s1 1 1 2v3.5c0 .8.7 1.5 1.5 1.5s1.5-.7 1.5-1.5V17c0-1 1-2 1-2H7m1-1h3s5 0 5-5-4-7-6.5-7S3 4 3 9s5 5 5 5Z"/></svg>
